X:1
T:Amazing Grace
T:For a Melodica Trio
%%score 1 2 3
L:1/8
Q:1/4=64
M:3/4
K:C
V:1 treble nm="Flute1" snm="Fl1."
V:2 treble nm="Flute2" snm="Fl2."
V:3 treble nm="Flute3" snm="Fl3."
V:1
"^Slowly" z6 |"^A1:Church" E4 C2!p! | G4 _B2 | F4 C2 | C3 z D2 | E4 G2 |!mp! G4 F2 | G4 B2 | %8
 G3 z!mf! G2 |"^A2" E4 G2 | _B4 B2 | F4 C2 | C3 z D2 |!mp! E4 G2 | A4 F2 | F6 | A3 z Ac |: %17
[K:F]"^B1:Gospel"!mf! A3 z (3fcA | f3 z _eA | d3 z B2 |!mf! c3 z Ac | A3 z (3fdA | c3 z Bd | %23
 (e2 f2 ^f2 | g3) z!f! (c2 | a3) z (3fdA | =B3 z ^d_B | B3 z B2 | A3 z A!mf!c | A3 z (3fcA | %30
 (B2 c) z c2 |!mp! (d2 c2 B2) | A4 z2 | c2 d2 e2 |"^Ｃ１：March"[Q:1/4=66]!mf! f4 (3(agf) | a4 a>g | %36
 f4 (3(d'c'b) | c'4 .g2 | f4 (3agf |!f! a4 g>a | z2 !>!c'4 | (3c'c'c' .c' z c2 |"^C2" c'4 (3agf | %43
 a4 a>c' | (3ggg g4 | (3f!ff!df (3ece .d2 | c2 (3ccc (3fed | d2 (3fdf f2 |!ff! d2 (3cAc (3fBf | %49
 f6- | f2 z4 | z6 | F6- | F4[Q:1/4=62]"^Slowly" z!mf! z |"^Ｄ1：Starly sky" z2!p! .f z .a z | %55
 z2 .a z .c' z | z2 .b z .f z | .a.f .c z z2 | z2 .f z .a z | z2 .a z .c' z |!p! z2 .b2 .a2 | %61
 .f2 z4!mf! |"^D2" z2!p! .a z .c' z | z2 .=b z .^f z | z2 .b!p! z .f z | .a z .f z z2!mf! | %66
 z2!p! .f z .a z | z2 .e z .g z | z2 .e z d2 | (c/d/)c- c4 | (C/D/)C- C4- | C6 |] %72
V:2
!p! z6 | G4 G2 | E4 G2 | A4 F2 | E3 z F2 | G4 c2 |!mp! c4 G2 | B4 d2 | B3 z!mf! F2 | c6 | E4 ^G2 | %11
 A4 F2 | E3 z F2 | G4!mp! c2 | F4 G2 | A6 | c3 z cf |:[K:F]!mf! F3 z (3cBF | c3 z c2 | B3 z F2 | %20
!mf! F3 z E2 | D3 z (3cBF | ^F3 z D=F | (c2 d2 ^d2 | e3) z ((F2 |!f! c3)) z (3cBF | ^d3 z =BE | %27
 D3 z FE | F3 z!mf! E2 | D3 z (3cBF | _E2 =E z E2 |!mp! B2 A2 G2 | c4 z2 | E2 G2 B2 | %34
!mf! z2 (3(FAc) f2 | z2 (3(FAc) _e2 | z2 (3(fdB) d2 | z2 (3(FAc) .G2 | z2 (3fdB d2 | %39
 z2 (3G=B!f!d f2 | e2 (3fff (3^fff | (3ggg .g z F2 | F>A c>e (3cBA | ^F2 A>^d ^f>a | E2 G>c (3eee | %45
!ff! (3ddd (3ccc .B2 | z2 (3AAA (3dcB | z2 (3ddd d2 |!ff! F2 (3ccc (3ddd | c6- | c2 z4 | z6 | %52
 z2!mp! .B2 ._e2 | ._a2 .c2 z2 | z2!p! .A z .c z | z2 .c z ._e z | z2 .d z .B z | .c.A .F z z2 | %58
 z2 .A z .c z | z2 .c z ._e z | z2!p! .d2 .c2 | .B2 z4 | z2!p! .c z .^d z | z2 .^d z .=B z | %64
 z2 .d'!p! z .b z | .c' z .a z z2 | z2 .a z .c' z | z2 .g z .b z | z2 .c z B2 | (A/B/)A- A4 | %70
 (F/G/)F- F4- | F6 |] %72
V:3
 z4!mp! (Gc) | c4 (3(edc) | e4 (ed) | c4 A2 | G3 z (G!mf!c) | c4 (3(edc) | e4 (de) | (g6 | %8
 f3) z!f! (eg) | g4 (3(edc) | e4 (ed) | c4 A2 | G3 z (G!mf!c) | c4 (3(edc) | e4 d2 | c6 | %16
 f3 z F2 |:[K:F]!mf! f3 z (3agf | a3 z ag | f3 z d2 |!mf! A3 z cf | f3 z (3agf | a3 z ga | (c'6- | %24
 c'3) z ((a2 |!f! c'3)) z (3agf | a3 z ag | f3 z d2 | c3 z!mf! cf | f3 z (3agf | a3 z g2 |!mp! f6 | %32
 F4 z2 | E4 G2 |!mf! A4 (3(cBA) | F4 _e>A | B4 (3(BAG) | F4 .E2 | D4 (3cBA | F4!f! =B>d | %40
 c2 (3ddd (3^ddd | (3eee .e z A2 | a4 (3fcA | =B4 ^d>^f | C4 (3ccc |!ff! F4 .D2 | A,2 C2 (3AGF | %47
 B2 (3BBB F2 |!ff! B,2 (3CCC (3GGG | A6- | A2 z2!mp! .c2 | .B2 ._A2 (_E2 | z6) | z4 (C!mf!F) | %54
 F4{/_A} =AG!p! | A4 (3(_A=AG) | F4{/_D} =DF | C3 z (CF) | F4{/_A} =AG | A4 (3(G_A=A) |!p! (c6 | %61
 B/c/ B2) z{/_A} =A!mf!c | c4{/_A} =AG!p! | A4 (3(_A=AG) | F4{/_D} =DF!p! | C3 z (C!mf!F) | %66
 F4{/_A} =AG!p! | A4 (G/_A/=A/G/) | (F/G/)F- (F4 | C6) | A6- | A6 |] %72

